icons/visible.svg

<?xml version="1.0" encoding="UTF-8"?>
<svg width="50" height="50" version="1.1" viewBox="0 0 50 50" xmlns="http://www.w3.org/2000/svg">
<path d="m25 11.25c-12.5 0-22.5 12.5-22.5 12.5-1.25 1.25 0 2.5 0 2.5s10 12.5 22.5 12.5 22.5-12.5 22.5-12.5 1.25-1.25 0-2.5c0 0-10-12.5-22.5-12.5zm0 3.75a10 10 0 0 1 10 10 10 10 0 0 1-10 10 10 10 0 0 1-10-10 10 10 0 0 1 10-10zm0 3.75a6.25 6.25 0 0 0-6.25 6.25 6.25 6.25 0 0 0 6.25 6.25 6.25 6.25 0 0 0 6.25-6.25 6.25 6.25 0 0 0-6.25-6.25z"/>
</svg>

<?xml version="1.0" encoding="UTF-8" standalone="no"?>
<svg
   xmlns:dc="http://purl.org/dc/elements/1.1/"
   xmlns:cc="http://creativecommons.org/ns#"
   xmlns:rdf="http://www.w3.org/1999/02/22-rdf-syntax-ns#"
   xmlns:svg="http://www.w3.org/2000/svg"
   xmlns="http://www.w3.org/2000/svg"
   id="svg4"
   viewBox="0 0 50 50"
   version="1.1"
   width="50"
   height="50">
  <metadata
     id="metadata10">
    <rdf:RDF>
      <cc:Work
         rdf:about="">
        <dc:format>image/svg+xml</dc:format>
        <dc:type
           rdf:resource="http://purl.org/dc/dcmitype/StillImage" />
        <dc:title></dc:title>
      </cc:Work>
    </rdf:RDF>
  </metadata>
  <defs
     id="defs8" />
  <path
     id="path2791"
     d="m 25,11.25 c -12.5,0 -22.5,12.5 -22.5,12.5 -1.25,1.25 0,2.5 0,2.5 0,0 10,12.5 22.5,12.5 12.5,0 22.5,-12.5 22.5,-12.5 0,0 1.25,-1.25 0,-2.5 0,0 -10,-12.5 -22.5,-12.5 z M 25,15 A 10,10 0 0 1 35,25 10,10 0 0 1 25,35 10,10 0 0 1 15,25 10,10 0 0 1 25,15 Z m 0,3.75 A 6.25,6.25 0 0 0 18.75,25 6.25,6.25 0 0 0 25,31.25 6.25,6.25 0 0 0 31.25,25 6.25,6.25 0 0 0 25,18.75 Z" />
</svg>
